X:43
T:Banks o' Doon,The. JClw.43
T:Ye Banks and Braes,aka. JClw.43
M:6/8
L:1/8
Q:3/8=80
S:J.Clews MS,Stoke-upon-Tern,Shrops.1832
N:More of a 3/4 time than 6/8.
N:A standard version of the well known Scottish tune
N:but with an extra flourish at end line 1.
A:N. Shropshire
Z:Neil Brookes 2006
K:D
A|d2d {f}e>de|f>af {f}e>de|{de}f>e.d d>B.A|Adf b/a/=g/b/g/e/|!
d2d{f}e>de|f>af {f}e>de|{de}f>e.d d>B.A|A>Bc{e}d2:|!
|:d/f/|a2b afd|a2b afd|afd afd|baf e2A|!
d2d {f}e>de|f>af {f}e>de|{de}f>e.d d>B.A|A>Bc{e}d2:|

